src/icons/heart.svg

<svg width="24" height="24" viewBox="0 0 24 24" fill="none" xmlns="http://www.w3.org/2000/svg">
<g clip-path="url(#clip0_306_823)">
<path d="M22.0615 3.40906C20.8047 2.15234 19.141 1.46546 17.3653 1.46546C15.5896 1.46546 13.9207 2.15742 12.664 3.41415L12.0076 4.0705L11.3411 3.40398C10.0844 2.14725 8.41044 1.4502 6.63474 1.4502C4.86413 1.4502 3.19527 2.14216 1.94363 3.3938C0.686904 4.65053 -0.00506011 6.31938 2.78603e-05 8.09508C2.78603e-05 9.87078 0.69708 11.5346 1.95381 12.7913L11.509 22.3465C11.6413 22.4788 11.8194 22.55 11.9924 22.55C12.1654 22.55 12.3434 22.4839 12.4757 22.3516L22.0513 12.8116C23.308 11.5549 24 9.88605 24 8.11035C24.0051 6.33465 23.3182 4.66579 22.0615 3.40906ZM21.0846 11.8398L11.9924 20.8964L2.92052 11.8246C1.92328 10.8273 1.37378 9.50445 1.37378 8.09508C1.37378 6.68572 1.91819 5.36284 2.91543 4.37069C3.90759 3.37854 5.23046 2.82904 6.63474 2.82904C8.04411 2.82904 9.37207 3.37854 10.3693 4.37578L11.5192 5.52566C11.7889 5.79532 12.2213 5.79532 12.491 5.52566L13.6307 4.38595C14.6279 3.38871 15.9559 2.83921 17.3602 2.83921C18.7645 2.83921 20.0873 3.38871 21.0846 4.38087C22.0818 5.37811 22.6262 6.70098 22.6262 8.11035C22.6313 9.51971 22.0818 10.8426 21.0846 11.8398Z" fill="black"/>
</g>
<defs>
<clipPath id="clip0_306_823">
<rect width="24" height="24" fill="white"/>
</clipPath>
</defs>
</svg>

<svg width="24" height="24" fill="none" xmlns="http://www.w3.org/2000/svg">
  <g clip-path="url(#a)">
    <path
      d="M22.061 3.41a6.588 6.588 0 0 0-4.696-1.945 6.604 6.604 0 0 0-4.701 1.95l-.656.655-.667-.666A6.62 6.62 0 0 0 6.635 1.45c-1.77 0-3.44.692-4.691 1.944A6.579 6.579 0 0 0 0 8.095c0 1.776.697 3.44 1.954 4.696l9.555 9.555c.132.133.31.204.483.204a.686.686 0 0 0 .484-.198l9.575-9.54A6.604 6.604 0 0 0 24 8.11a6.574 6.574 0 0 0-1.939-4.7Zm-.976 8.43-9.093 9.056-9.071-9.071a5.238 5.238 0 0 1-1.547-3.73c0-1.41.544-2.732 1.541-3.724a5.23 5.23 0 0 1 3.72-1.542c1.41 0 2.737.55 3.734 1.547l1.15 1.15c.27.27.702.27.972 0l1.14-1.14a5.247 5.247 0 0 1 3.73-1.547c1.404 0 2.726.55 3.724 1.542a5.233 5.233 0 0 1 1.541 3.73 5.212 5.212 0 0 1-1.541 3.729Z"
      fill="#000"
    />
  </g>
  <defs>
    <clipPath id="a"><path fill="#fff" d="M0 0h24v24H0z" /></clipPath>
  </defs>
</svg>
